src/extras-openmoji/emergency/E0A0.svg

<svg id="emoji" viewBox="0 0 72 72" xmlns="http://www.w3.org/2000/svg">
  <g id="grid">
    <path fill="#b3b3b3" d="M68,4V68H4V4H68m4-4H0V72H72V0Z"/>
    <path fill="none" stroke="#00a5ff" stroke-miterlimit="10" stroke-width="0.1" d="M12.923,10.9583H59.0769A1.9231,1.9231,0,0,1,61,12.8814V59.0352a1.9231,1.9231,0,0,1-1.9231,1.9231H12.9231A1.9231,1.9231,0,0,1,11,59.0352V12.8813A1.923,1.923,0,0,1,12.923,10.9583Z"/>
    <rect x="16" y="4" rx="2.2537" ry="2.2537" width="40" height="64" fill="none" stroke="#00a5ff" stroke-miterlimit="10" stroke-width="0.1"/>
    <rect x="16" y="4" rx="2.2537" ry="2.2537" width="40" height="64" transform="translate(72) rotate(90)" fill="none" stroke="#00a5ff" stroke-miterlimit="10" stroke-width="0.1"/>
    <circle cx="36" cy="36" r="29" fill="none" stroke="#00a5ff" stroke-miterlimit="10" stroke-width="0.1"/>
  </g>
  <g id="color">
    <polygon fill="#ea5a47" points="49.153 32.349 49.153 34.341 35.848 26.692 22.542 34.341 22.542 32.349 35.848 8.288 49.153 32.349"/>
    <polygon fill="#d22f27" points="22.542 32.349 35.708 21.147 49.153 32.349 49.153 34.341 35.848 26.692 22.542 34.341 22.542 32.349"/>
    <path fill="#9b9b9a" d="M47.8224,40.5722V62.5855a.8892.8892,0,0,1-.9319.8608h-9.537a1.5437,1.5437,0,0,1-1.2906-.8608L30.5415,46.8824V62.5855a.8893.8893,0,0,1-.9323.8608H24.7334a.8286.8286,0,0,1-.86-.8608V40.5722a.8286.8286,0,0,1,.86-.8608H34.27a1.6608,1.6608,0,0,1,1.3624.8608l5.5214,15.9183V40.5722a.8287.8287,0,0,1,.8605-.8608h4.8761A.8892.8892,0,0,1,47.8224,40.5722Z"/>
  </g>
  <g id="line">
    <path fill="none" stroke="#000" stroke-linecap="round" stroke-width="2" d="M47.8224,40.5722V62.5855a.8892.8892,0,0,1-.9319.8608h-9.537a1.5437,1.5437,0,0,1-1.2906-.8608L30.4236,46.8824h-.542l.66,15.7031a.8893.8893,0,0,1-.9323.8608H24.7334a.8286.8286,0,0,1-.86-.8608V40.5722a.8286.8286,0,0,1,.86-.8608H34.27a1.6608,1.6608,0,0,1,1.3624.8608l5.39,15.9183h.4612l-.33-15.9183a.8287.8287,0,0,1,.8605-.8608h4.8761A.8892.8892,0,0,1,47.8224,40.5722Z"/>
    <polygon fill="none" stroke="#000" stroke-linecap="round" stroke-width="2" points="49.153 32.349 49.153 34.341 35.848 26.692 22.542 34.341 22.542 32.349 35.848 8.288 49.153 32.349"/>
  </g>
</svg>

<svg viewBox="0 0 72 72" xmlns="http://www.w3.org/2000/svg"><path fill="#b3b3b3" d="M68 4v64H4V4h64m4-4H0v72h72V0z"/><path fill="none" stroke="#00a5ff" stroke-miterlimit="10" stroke-width=".1" d="M12.923 10.958h46.154A1.923 1.923 0 0161 12.881v46.154a1.923 1.923 0 01-1.923 1.923H12.923A1.923 1.923 0 0111 59.035V12.881a1.923 1.923 0 011.923-1.923z"/><rect x="16" y="4" rx="2.254" ry="2.254" width="40" height="64" fill="none" stroke="#00a5ff" stroke-miterlimit="10" stroke-width=".1"/><rect x="16" y="4" rx="2.254" ry="2.254" width="40" height="64" transform="rotate(90 36 36)" fill="none" stroke="#00a5ff" stroke-miterlimit="10" stroke-width=".1"/><circle cx="36" cy="36" r="29" fill="none" stroke="#00a5ff" stroke-miterlimit="10" stroke-width=".1"/><path d="M47.822 40.572v22.014a.89.89 0 01-.932.86h-9.536a1.544 1.544 0 01-1.291-.86l-5.64-15.704h-.541l.66 15.703a.89.89 0 01-.933.861h-4.876a.829.829 0 01-.86-.86V40.572a.829.829 0 01.86-.86h9.537a1.66 1.66 0 011.362.86l5.39 15.918h.462l-.33-15.918a.829.829 0 01.86-.86h4.876a.89.89 0 01.932.86zm1.331-8.223v1.992l-13.305-7.649-13.306 7.649v-1.992L35.848 8.288l13.305 24.061z" stroke-linecap="round" stroke-miterlimit="10" stroke-width="6" stroke="#fff" fill="none" stroke-linejoin="round"/><path fill="#ea5a47" d="M49.153 32.349v1.992l-13.305-7.649-13.306 7.649v-1.992L35.848 8.288l13.305 24.061z"/><path fill="#d22f27" d="M22.542 32.349l13.166-11.202 13.445 11.202v1.992l-13.305-7.649-13.306 7.649v-1.992z"/><path fill="#9b9b9a" d="M47.822 40.572v22.014a.89.89 0 01-.932.86h-9.536a1.544 1.544 0 01-1.291-.86L30.54 46.882v15.704a.89.89 0 01-.932.86h-4.876a.829.829 0 01-.86-.86V40.572a.829.829 0 01.86-.86h9.537a1.66 1.66 0 011.362.86l5.522 15.918V40.573a.829.829 0 01.86-.86h4.876a.89.89 0 01.932.86z"/><g fill="none" stroke="#000" stroke-linecap="round" stroke-width="2"><path d="M47.822 40.572v22.014a.89.89 0 01-.932.86h-9.536a1.544 1.544 0 01-1.291-.86l-5.64-15.704h-.541l.66 15.703a.89.89 0 01-.933.861h-4.876a.829.829 0 01-.86-.86V40.572a.829.829 0 01.86-.86h9.537a1.66 1.66 0 011.362.86l5.39 15.918h.462l-.33-15.918a.829.829 0 01.86-.86h4.876a.89.89 0 01.932.86zm1.331-8.223v1.992l-13.305-7.649-13.306 7.649v-1.992L35.848 8.288l13.305 24.061z"/></g></svg>
